X:498020
T: Wink And She'll Follow You 
T: aka Last Night's Fun 
T: aka Cé Bheadh Sa Tine Nach N-éireodh
C: TBD / Ciaran Carson
H:
B:
O:Kevin Fraser
Z:Kevin Fraser
Q:3/8=120
K:HP
M:9/8
L:1/8
R:Slip Jig
U: R = ///
U: r = //
U: V = !accent!
V:M gstem=up stem=down name="Melody"
V:H gstem=up stem=down name="Harmony"
V:C gstem=up stem=down name="C-Harmony"
V:S gstem=up stem=down dyn=up stafflines=1 clef=perc middle=G name="Snare" sname="Snare"
V:B gstem=up stem=down clef=none dyn=up name="Bass"
V:T gstem=up stem=down clef=none dyn=up name="Tenor"
V:BB gstem=up stem=down name="Brass Bass" sname="ABCD-C" transpose=-1  octave=-1 clef=bass
V:BC gstem=up stem=down name="Brass Chord" sname="ABCD-D" transpose=-1
V:BD gstem=up stem=down name="Brass Chord 2" sname="ABCD-B" transpose=-1
V:P gstem=up stem=down name="Piano" octave=-1
I:MIDI=program 110
%%MIDI gracedivider 4
I:linebreak $
% %score {M H}
%%MIDI program 109 #bagpipes
%%MIDI vol 100
[V:M]{gAd}A3 {g}ed{e}B  {g}efg |{gAd}A3 {g}ed{e}B {Gdc}d2B| {gAd}A3 {g}ed{e}B  {g}efg |{a}fed {g}ed{e}B {Gdc}d2B| $
[V:M]{gAd}A3 {g}ed{e}B  {g}efg |{gAd}A3 {g}ed{e}B {Gdc}d2B| {gAd}A3 {g}ed{e}B  {g}efg |{a}fed {g}ed{e}B {Gdc}d2e| $
[V:M]{g}fef {ag}afd {g}efg| {g}fef {ag}afd {gf}g3| {a}fef {ag}afd {g}efg |{a}fed {g}ed{e}B {Gdc}d2e|$
[V:M]{g}fef {ag}afd {g}efg| {g}fef {ag}afd {gf}g3| {a}fef {ag}afd {g}efg |{a}fed {g}ed{e}B {Gdc}d3|
W: Sometimes played with Foxhunter and Welcome the Piper.

